X:1
T:Evening canticles in F - Brewer
T:#
%%score [ ( 1 2 ) ( 3 4 ) ] { ( 5 6 ) | ( 7 8 ) }
L:1/8
Q:1/4=108
M:4/4
K:F
V:1 treble nm="Soprano/Alto" snm="Soprano/Alto"
V:2 treble 
V:3 bass nm="Tenor/Bass" snm="Tenor/Bass"
V:4 bass 
V:5 treble nm="Organ" snm="Organ"
V:6 treble 
V:7 bass 
V:8 bass 
V:1
"^Magnificat""^moderately fast" z2!mf! A2 B2 A2 | c2 c2 A2 G2 | F4 F2 F2 | %3
w: My soul doth|mag- ni- fy the|Lord, and my|
 F2 d2 d2"^A. H. Brewer\n(1865-1928)" c2 | c2 BA G2 F2 | A2 G3 z G2 | G2 FE F2 GA | B3 c A2 A2 | %8
w: spi- rit hath re-|joic- ed in God my|Sa- viour, For|He hath re- gard- ed the|low- li- ness of|
 (A2 G2) (F2 A2) | c2 B z B2 B2 | A3 G (F2 G2) | A4 A2 AA | d2 AA B2 A2 | (A2 G2) F z!f! F2 | %14
w: His * hand\- *|maid- en. For be-|hold, from hence\- *|forth all ge- ne-|ra- tions shall call *|bless\- * ed. For|
 G4 G2 G2 | A2 A4 D2 | B3 A B2 c2 | d6!p! F2 | F4 ^F4 | G4 A4 | c2 B2 A2 G2 | F4!mp! F2 G2 | %22
w: He that is|migh- ty hath|mag- ni- fi- ed|me, and|ho- ly,|ho- ly,|ho- ly is His|Name. And his|
 A2 GG B2 BA | G2 F4 E2 | D2 E2 F2 A2 | (c3 B) A2!f! AA | A2 (^GA) =B2 GE | A6 AA | c>c =Bc d2 BG | %29
w: mer- cy is on them that|fear Him through-|out all ge- ne-|ra\- * tions. He hath|shew- ed * strength with His|arm, He hath|scat- ter- ed the proud in th'i-|
 (e4 d2) A2 | c3 c c2 =B2 | c3 z!mf! E2 E2 | F4 G2 A2 | c2 B2 A2 G2 | F6 F2 | (F2 d2) (d2 c2) | %36
w: ma\- * gi-|na- tion of the|hearts. He hath|put down the|migh- ty from their||hath * ex\- *|
 (c2 BA) G2 F2 | (A2 B2) G2 A2 | F4 z4 | z4"^cresc." c2 c2 | c4 B2 A2 | d2 G2 A2 A2 | %42
w: alt\- * * ed the|hum\- * ble and|meek.|He hath|fill- ed the|hun- gry with good|
 B4"^dim." G2 A2 | B6 B2 | B4 A4 | A4 G2 F2 | E4 F2 G2 | (A2 G2) B2 A2 | G2 F4 E2 | D2 EE F2 A2 | %50
w: things, and the|rich He|hath sent|emp- ty a-|way. He re-|mem\- * b'ring His|* cy hath|hol- pen His ser- vant|
 c3 B A2 AA | A3 G F2 G2 | A2 c2 c2 B2 | d3 d c2 AF | (A4 G2) F2 | (F4 E4) | F2 z2 z4 | %57
w: Is- ra- el, as He|pro- mis- ed to|our fore- fa- thers,|A- bra- ham and his|seed, * for|ev\- *|er.|
!f! D2 D2 F2 GG | A4 A4 | z2 F2 A2 B2 | c6 c2 | A4 c4 | d4 d4 | c8- | c2 z2!mf! F2 G2 | %65
w: Glo- ry be to the|Fa- ther,|and to the|Son, and|to the|Ho- ly|Ghost;|* As it|
 (A2 G2) B2 AA | G2 F4 E2 |!<(! D2 E2 F2 A2!<)! | (c3 B) A4 | A4"^cresc." G2 F2 | %70
w: was * in the be\-|* * is|now, and ev- er|shall * be,|world with- out|
[Q:1/4=105] F4[Q:1/4=101]!f!"^rall." (B4 |[Q:1/4=97] A4[Q:1/4=93] G4) |[Q:1/4=92] F8 |] %73
w: * A\-||men.|
[Q:1/4=96]!p!"^rather slow""^Nunc dimittis"[Q:1/4=96][Q:1/4=96] A6 A2 | c2 c2 B2 A2 | A4 G2 D2 | %76
w: Lord, now|let- test Thou Thy|ser- vant de-|
 F4 G4 | A6 A2 |"^A. H. Brewer\n(1865-1928)" A2 G2 G2 A2 | F4 F2 G2 | A4 G4 | c4 C2 A2 | G4 F4 | %83
w: part in|peace, ac-|cord- ing to Thy|word. For mine|eyes have|seen Thy sal-|va- tion,|
 E3 E ^F2 ^G2 | A4 A2 =B2 | c2 =B2 c2 d2 | (e4 d4) | d4 c2!mf! c2 | c4 E4 | F6 F2 | (F2 A2) c3 d | %91
w: Which Thou hast pre-|par- ed be-|fore the face of|all *|peo- ple; To|be a|light to|light\- * en the|
 c4 B4 |!<(! B3 c d2 f2!<)! | f2 e2 d2 c2 | c6[Q:1/4=95] B2 |"^rall."[Q:1/4=92] A4[Q:1/4=89] G4 | %96
w: Gen- tiles,|and to be the|glo- ry of Thy|peo- ple|Is- ra-|
"^a tempo"[Q:1/4=88] F8[Q:1/4=96] | z8 |!f! D2 D2 F2 GG | A4 A4 | z2 F2 A2 B2 | c6 c2 | A4 c4 | %103
w: el.||Glo- ry be to the|Fa- ther,|and to the|Son, and|to the|
 d4 d4 | c8- | c2 z2!mf! F2 G2 | (A2 G2) B2 AA | G2 F4 E2 |!<(! D2 E2 F2 A2!<)! | (c3 B) A4 | %110
w: Ho- ly|Ghost;|* As it|was * in the be\-|* * is|now, and ev- er|shall * be,|
 A4"^cresc." G2[Q:1/4=95] F2 |[Q:1/4=93] F4[Q:1/4=90]!f!"^rall." (B4 |[Q:1/4=87] A4[Q:1/4=85] G4) | %113
w: world with- out|* A\-||
[Q:1/4=84] !fermata!F8 |] %114
w: men.|
V:2
 z2 A2 B2 A2 | c2 c2 A2 G2 | F4 F2 F2 | F2 D2 D2 C2 | C2 BA G2 F2 | A2 G3 z C2 | C2 CC C2 FF | %7
w: |||||||
 F2 E2 F2 F2 | _E4 E4 | _E2 D z B2 B2 | A3 G (F2 G2) | A4 E2 EE | D2 DD (DE) F2 | (F2 E2) F z F2 | %14
w: |||||* * * call * *||
 G4 G2 G2 | A2 A4 D2 | B,3 A, B,2 C2 | D6 D2 | D4 D4 | D4 D4 | D2 D2 E2 E2 | F4 z4 | x8 | x8 | x8 | %25
w: |||||||||||
 x4 x2 AA | A2 (^GA) =B2 GE | A6 AA | C>C =B,C D2 B,G, | (E4 D2) A,2 | C3 C C2 =B,2 | C3 z E2 E2 | %32
w: |||||||
 F4 G2 A2 | c2 B2 A2 G2 | F4 (F2 E2) | D4 D4 | D4 D2 F2 | F4 F2 E2 | F4 x4 | x8 | x8 | x8 | x8 | %43
w: ||* and *|||||||||
 x8 | x8 | x8 | x4 F2 E2 | (F2 E2) F2 F2 | E2 D4 C2 | D2 CC C2 F2 | F2 E2 F2 FF | _E3 E E2 E2 | %52
w: |||||||||
 _E2 E2 E2 D2 | D2 =E2 F2 FF | F6 D2 | C8 | F2 z2 z4 | D2 D2 F2 GG | A4 A4 | z2 F2 A,2 B,2 | %60
w: ||||||||
 C6 C2 | A,4 C4 | D4 D4 | C8- | C2 z2 F2 E2 | (F2 E2) F2 FF | E2 D4 C2 | D2 C2 C2 F2 | (F2 E2) F4 | %69
w: |||||||||
 _E4 E2 E2 | (_E2 D2) (D2 =E2 | F6 E2) | F8 |] A6 A2 | C2 C2 B,2 A,2 | A,4 G,2 D2 | F4 G4 | A6 A2 | %78
w: |end. * * *||||||||
 A2 G2 G2 A2 | F4 F2 G2 | A4 G4 | c4 C2 A2 | G4 F4 | E3 E ^F2 ^G2 | A4 A2 =B2 | c2 =B2 c2 F2 | %86
w: ||||||||
 (G4 =B4) | =B4 c2 c2 | c4 E4 | F6 F2 | (F2 A2) c3 d | c4 B4 | B3 A B2 d2 | d2 c2 B2 B2 | A6 G2 | %95
w: |||||||||
 F6 E2 | F8 | z8 | D2 D2 F2 GG | A4 A4 | z2 F2 A,2 B,2 | C6 C2 | A,4 C4 | D4 D4 | C8- | %105
w: ||||||||||
 C2 z2 F2 E2 | (F2 E2) F2 FF | E2 D4 C2 | D2 C2 C2 F2 | (F2 E2) F4 | _E4 E2 E2 | (_E2 D2) (D2 =E2 | %112
w: ||||||end. * * *|
 F6 E2) | F8 |] %114
w: ||
V:3
 z2 A,2 B,2 A,2 | C2 C2 A,2 G,2 | F,4 F,2 F,2 | F,2 D2 D2 C2 | C2 B,A, G,2 F,2 | A,2 G,3 z E,2 | %6
w: ||||||
 E,2 F,G, F,2 CC | D2 C2 C2 C2 | (C2 B,2) (A,2 C2) | A,2 B, z B,2 B,2 | A,3 G, (F,2 G,2) | %11
w: |||||
 A,4 ^C2 CC | =C2 CC B,2 (CD) | C3 B, A, z F,2 | G,4 G,2 G,2 | A,2 A,4 D,2 | B,3 A, B,2 C2 | %17
w: |* * * * me *|||||
 D6 B,2 | B,4 C4 | B,4 A,4 | G,2 B,2 C2 B,2 | A,4 z4 | z8 | x8 | x8 | x4 x2 A,A, | %26
w: |||||||||
 A,2 (^G,A,) =B,2 G,E, | A,6 A,A, | C>C =B,C D2 B,G, | (E4 D2) A,2 | C3 C C2 =B,2 | C3 z E,2 E,2 | %32
w: ||||||
 F,4 G,2 A,2 | C2 B,2 A,2 G,2 | F,4 A,4 | (B,2 F,2) ^F,4 | (G,3 ^F,) G,2 D2 | (C2 D2) B,2 C2 | %38
w: ||||||
 A,4 z4 | z8 | z8 | z8 | z8 | z8 | z8 | z8 | z4 A,2 C2 | C4 D2 C2 | (CB,) A,4 A,2 | %49
w: ||||||||||mer\- * * *|
 F,2 G,G, F,2 C2 | D2 C2 C2 CC | C3 B, A,2 B,2 | C2 A,2 A,2 B,2 | B,2 B,2 A,2 CC | D6 G,2 | %55
w: ||||||
 (A,4 G,4) | A,2 z2 z4 | D,2 D,2 F,2 G,G, | A,4 A,4 | z2 F,2 A,2 B,2 | C6 C2 | A,4 C4 | D4 D4 | %63
w: ||||||||
 C8- | C2 z2 A,2 C2 | C4 D2 CC | (CB,) A,4 A,2 | F,2 G,2 F,2 C2 | (D2 C2) C4 | C4 B,2 A,2 | %70
w: |||gin\- * ning, *||||
 (A,2 B,2) (B,4 | C2 D2 G,2 CB,) | A,8 |] A,6 A,2 | C2 C2 B,2 A,2 | A,4 G,2 D,2 | F,4 G,4 | %77
w: |||||||
 A,6 A,2 | A,2 G,2 G,2 A,2 | F,4 F,2 G,2 | A,4 G,4 | C4 C,2 A,2 | G,4 F,4 | E,3 E, ^F,2 ^G,2 | %84
w: |||||||
 A,4 A,2 =B,2 | C2 =B,2 C2 D2 | (E4 D4) | D4 C2 C2 | C4 E,4 | F,6 F,2 | (F,2 A,2) C3 D | C4 B,4 | %92
w: ||||||||
 B,3 C D2 F2 | F2 E2 D2 C2 | C6 B,2 | A,4 G,4 | F,8 | z8 | D,2 D,2 F,2 G,G, | A,4 A,4 | %100
w: ||||||||
 z2 F,2 A,2 B,2 | C6 C2 | A,4 C4 | D4 D4 | C8- | C2 z2 A,2 C2 | C4 D2 CC | (CB,) A,4 A,2 | %108
w: |||||||gin\- * ning, *|
 F,2 G,2 F,2 C2 | (D2 C2) C4 | C4 B,2 A,2 | (A,2 B,2) (B,4 | C2 D2 G,2 CB,) | A,8 |] %114
w: ||||||
V:4
 z2 A,2 B,2 A,2 | C2 C2 A,2 G,2 | F,4 F,2 F,2 | F,2 D2 D2 C2 | C2 B,A, G,2 F,2 | A,2 G,3 z C,2 | %6
w: ||||||
 B,,2 B,,B,, A,,2 A,,A,, | G,,2 C,2 F,2 F,2 | F,4 F,4 | B,,2 B,, z B,2 B,2 | A,3 G, (F,2 G,2) | %11
w: |||||
 A,4 A,2 G,G, | ^F,2 F,F, G,2 (A,B,) | C2 C,2 F, z F,2 | G,4 G,2 G,2 | A,2 A,4 D,2 | %16
w: |||||
 B,3 A, B,2 C2 | D6 B,,2 | B,4 A,4 | G,4 ^F,4 | G,2 G,2 C,2 C,2 | F,4 z4 | z8 | z8 | z8 | %25
w: |||||||||
 z4 z2 A,A, | A,2 (^G,A,) =B,2 G,E, | A,6 A,A, | C>C =B,C D2 B,G, | (E4 D2) A,2 | C3 C C2 =B,2 | %31
w: ||||||
 C3 z E,2 E,2 | F,4 G,2 A,2 | C2 B,2 A,2 G,2 | (F,2 D,2) C,4 | B,,4 A,,4 | (G,,3 A,,) B,,2 =B,,2 | %37
w: |||seat, * *|||
 C,4 C,2 C,2 | D,4 x4 | x8 | x8 | z8 | z8 | z8 | z8 | z8 | z4 D,2 C,2 | (F,2 C,2) B,,2 F,2 | %48
w: |||||||||||
 C,2 D,4 A,,2 | B,,2 B,,B,, A,,2 A,,2 | G,,2 C,2 F,2 F,F, | F,3 F, F,2 F,2 | F,2 F,2 B,,2 B,,2 | %53
w: |||||
 G,,2 G,,2 A,,2 A,,A,, | (B,,4 =B,,2) B,,2 | C,8 | F,2 z2 z4 | D,2 D,2 F,2 G,G, | A,4 A,4 | %59
w: ||||||
 z2 F,2 A,2 B,2 | C6 C2 | A,4 C4 | D4 D4 | C8- | C2 z2 D,2 C,2 | F,2 C,2 B,,2 F,F, | C,2 D,4 A,,2 | %67
w: ||||||||
 B,,2 B,,2 A,,2 A,,2 | (G,,2 C,2) F,4 | F,4 F,2 F,2 | B,,4 G,,4 | A,,2 B,,2 C,4 | F,8 |] A,6 A,2 | %74
w: |||||||
 C2 C2 B,2 A,2 | A,4 G,2 D,2 | F,4 G,4 | A,6 A,2 | A,2 G,2 G,2 A,2 | F,4 F,2 G,2 | A,4 G,4 | %81
w: |||||||
 C4 C,2 A,2 | G,4 F,4 | E,3 E, ^F,2 ^G,2 | A,4 A,2 =B,2 | C2 =B,2 C2 F,2 | (G,4 =B,4) | %87
w: ||||||
 =B,4 C2 C2 | C4 E,4 | F,6 F,2 | (F,2 A,2) C3 D | C4 B,4 | B,3 A, B,2 D2 | D2 C2 B,2 B,2 | %94
w: |||||||
 A,6 G,2 | F,6 E,2 | F,8 | z8 | D,2 D,2 F,2 G,G, | A,4 A,4 | z2 F,2 A,2 B,2 | C6 C2 | A,4 C4 | %103
w: |||||||||
 D4 D4 | C8- | C2 z2 D,2 C,2 | F,2 C,2 B,,2 F,F, | C,2 D,4 A,,2 | B,,2 B,,2 A,,2 A,,2 | %109
w: ||||||
 (G,,2 C,2) F,4 | F,4 F,2 F,2 | B,,4 (G,,4 | A,,2 B,,2 C,4) | !fermata!F,8 |] %114
w: |||||
V:5
!mf!"^moderately fast" z2 (A2 B2 A2 | c4 A2 G2 | F4) F4 | (F2 d2) (d2 c2) | (c2 BA G2 F2 | %5
 A2 G4 (G2 | G2 FE F2 GA | B3 c A2) A2 | A2 G2 F2 A2 | c2 B2) B2 B2 | A3 G F2 G2 | A4 A2 A2 | %12
 d2 A2 B2 A2 | [FA]2 [EG]2 F z!f! [CF]2 | [_EG]4 [EG]2 [EG]2 | [CA]6 [CD]2 | %16
 [B,DB]3 [CDA] [B,DB]2 [Fc]2 | [DFd]6!p! [DF]2 | [DF]4 [D^F]4 | [DG]4 [DA]4 | c2 B2 A2 G2 | %21
 F4!mp! F2 [EG]2 | [FA]2 [CEG]2 [DFB]2 [DFB][CFA] | [EG]2 [DF]4 [CE]2 | D2 [CE]2 [CF]2 [FA]2 | %25
 c3 B [FA]2 [A,CA]-[A,DA] | !>![A,^CEA]2 z2 !>![DE=B]2 z2 | %27
 !>![^CEA]3 !>![EA^c] !>![EAce]2 [EA=ce]2 | [EGce]2 z2 [FGd]2 z2 | [EGce]2 [EGe]2 [DAd]2 [A,DA]2 | %30
 ([CEGc]2 [Dd][Ee] [Ff]2 [FGd]2 | [Gc]2 _B2) (G2 A2 | F4 G2 A2 | c2 B2 [DA]2 [EG]2 | F4) F4 | %35
 (F2 d2) (d2 c2) | c2 BA G2 [DF]2 | A2 B2 x2 [EA]2 | (F2 f2 =B2 d2 | c2) (_b2 e2 g2 | %40
 f2 _e2 d2 a2 | g2 d2 [C_EGc]2 [D^FA]2 | B4) [B,G]2 [A,=FA]2 | B8 | [^CB]4 A4 | [FA]4 [EG]2 [DF]2 | %46
 [CE]4 (F2 [EG]2 | [FA]2 [EG]2 [FB]2 [FA]2 | [EG]2 [DF]4) ([CE]2 | D2 [CE]2 [CF]2 [FA]2 | %50
 c3 B [CFA]4) | A3 G F2 G2 | A2 [Fc]2 [_EFc]2- [DFB]2 | d4 [Fc]2 [FA]F | A4 G2 [DF]2 | F4 E4 | %56
 F2!<(! A2 [^C^c]3 [Dd]!<)! |!f! [DFAd]2 D2 [DF]2 [DG]2 | A4 [A,A]4- | [A,DFA]6 [B,FB]2 | %60
 [Cc]6 [CEBc]2 | [CFA]4 [CGc]4- | [CFAc]4 [DFG=B]4 | [CEGc]2 [EGc]2 [Gce]2 [Gcg]2 | %64
 [cegc']4!mf! (F2 [EG]2 | [FA]2 [EG]2 [DFB]2 [CFA]2 | [EG]2 [DF]4) [CE]2 | %67
!<(! D2 [CE]2 [CF]2 [FA]2!<)! | c3 B [CFA]4 | A4 G2 F2 | F4 B4 | A4 G4 | F8 |]!p! A8 | c4 B2 A2 | %75
 A4 G2 D2 | [DF]4 [CEG]4 | A8 | A2 G2 G2 A2 | F4 (F2 G2 | [FA]4 G4 | [Gc]4 C2 A2 | [CG]4 F4) | %83
 [=B,E]4 ^F2 ^G2 | [EA]6 ([D=B]2 | [Ec]2 [D=B]2 [Ec]2 [Fd]2 | e4 d4 | [FGd]4- [EGc]2)!mf! [CEc]2 | %88
 [CEc]4- [CE]4 | F6 F2 | F2 A2 c3 d | [_Ec]4 [DB]4 |!<(! ([GB]3 [Ac] [Bd]2 [df]2!<)! | %93
 [df]2 [ce]2 [FBd]2 [Gc]2) | c6 B2 |"^rall." A4 G4 |"^a tempo" [CF]2 C2 F2 G2 | %97
 A2!<(! A2 [^C^c]3 [Dd]!<)! |!f! [DFAd]2 D2 [DF]2 [DG]2 | A4 [A,A]4- | [A,DFA]6 [B,FB]2 | %101
 [Cc]6 [CEBc]2 | [CFA]4 [CGc]4- | [CFAc]4 [DFG=B]4 | [CEGc]2 [EGc]2 [Gce]2 [Gcg]2 | %105
 [cegc']4!mf! (F2 [EG]2 | [FA]2 [EG]2 [DFB]2 [CFA]2 | [EG]2 [DF]4) [CE]2 | %108
!<(! D2 [CE]2 [CF]2 [FA]2!<)! | c3 B [CFA]4 | A4 G2 F2 | F4 B4 | A4 G4 | !fermata!F8 |] %114
V:6
 z2 F2 F2 F2 | F2 E2 E4 | F4 F2 E2 | D4 D4 | D4 D2 D2 | C6 C2 | C4 C2 F2 | F2 E2 F2 F2 | _E4 E4 | %9
 _E2 D2 =E2 D2 | ^C4 D4 | D2 ^C2 [CE]2 E2 | D4 DE F2 | x8 | x8 | x8 | x8 | x8 | x8 | x8 | D4 E4 | %21
 x8 | x8 | x8 | x8 | F2 E2 x4 | x8 | x8 | x8 | x8 | x8 | E4 E4 | F2 E2 D4 | [DG]4 x4 | x4 F2 E2 | %35
 D4 D4 | D4 x4 | F4- [FG]2 x2 | x8 | x8 | x8 | x8 | [DG]2 [CD]2 x4 | E4 D4 | x4 D2- [DF]2 | x8 | %46
 x8 | x8 | x8 | x8 | [DF]2 [CE]2 x4 | _E8 | _E4 x4 | D2 =E2 x4 | F6 x2 | C8 | [A,C]4 [GA]4 | x8 | %58
 D2 ^C2 D2 [CG]2 | x8 | F2 E2 F2 x2 | x8 | x8 | x8 | x8 | x8 | x8 | x8 | [DF]2 [CE]2 x4 | E8 | %70
 _E2 D2 D2 =E2 | F6 E2 | F8 |] F4 E4 | _E8 | D8 | x8 | [CF]4 ^C4 | D4 E4 | x4 F4 | x8 | x4 C4 | %82
 x4 D2 C2 | x4 E4 | x8 | C4 x4 | G6 F2 | x8 | x8 | C8 | _E8 | x8 | x8 | x8 | F4 _E2 D2 | F6 E2 | %96
 x2 C2- [CF]4 | [CF]2 [CF]2 [GA]4 | x8 | D2 ^C2 D2 [CG]2 | x8 | F2 E2 F2 x2 | x8 | x8 | x8 | x8 | %106
 x8 | x8 | x8 | [DF]2 [CE]2 x4 | _E8 | _E2 D2 D2 =E2 | F6 E2 | F8 |] %114
V:7
 F,2 C2 D2 C2 | A,2 G,2 C2 B,2 | B,2 A,2 A,4 | B,2 F,2 ^F,4 | G,3 ^F, G,2 A,2 | F,2 E,4 E,2 | %6
 E,2 F,G, F,2[I:staff -1] C2 | D2 C2 C2 C2 |[I:staff +1] C2 B,2 A,2 C2 | A,2 B,2 G,2 F,2 | %10
 E,4 F,2 D,E, | F,2 E,2 A,2 ^C2 | =C4 B,2 CD | C3 B, A, z A,2 | B,4 B,2 G,2 | G,2 ^F,2 =E,2 F,2 | %16
 G,3 ^F, G,2 A,2 | B,6 B,2 | B,4 [A,C]4 | [G,B,]4 [^F,A,]4 | G,2 B,2 C2 B,2 | %21
 [F,A,]4 [D,A,]2 [C,C]2 | [F,C]2 x2 x4 | CB, A,4 A,2 | F,2 G,2 F,2[I:staff -1] C2 | %25
 D2 C2 C2[I:staff +1] F,2 | E,2 z2 ^G,2 z2 | [A,,E,A,]6 [A,,E,A,]2 | [E,G,C]2 z2 [G,=B,]2 z2 | %29
 [C,G,C]2 [E,=B,]2 [F,A,]2 [F,,F,]2 | [G,,E,G,]4 [D,A,]2 [G,=B,]2 |[I:staff -1] C2 D2 C2 B,2 | %32
[I:staff +1] A,4 B,2 ^F,2 | G,4 B,4 | B,2 A,2 A,4 | B,2 F,2 ^F,4 | %36
 [G,,G,]3 [A,,^F,] [B,,G,]2 =B,,2 | C2 D2 B,2 C2 | A,2-"^cresc." [A,D]2 [F,G,D]4 | %39
 [E,G,C]4 [B,C]4 | [A,C]4 [CD^F]4 | [B,DG]4 x4 | x4"^dim." x4 | G,4 F,4 | E,4 F,2 A,2 | =B,8 | %46
 C2 _B,2 A,2 C2 |[I:staff -1] C4 D2 C2 |[I:staff +1] CB, A,4 A,2 | F,2 G,2 F,2[I:staff -1] C2 | %50
[I:staff +1] x8 | C3 B, A,2 B,2 | C2 A,2 A,2 B,2 | B,4 A,2 C2 |[I:staff -1] D6 G,2 | %55
[I:staff +1] A,4 G,4 | F,4 E,4 | F,2 [F,A,]2 [F,A,]2 [D,G,]2 | E,4 [F,,F,]2 [E,,E,]2 | %59
 [D,,D,]6 [_D,,_D,]2 | [C,,C,]2 [B,,B,]2 [A,,A,]2 [G,,G,]2 | [F,,F,]4 [E,,E,]4 | %62
 [D,,D,]4 [G,,G,]4 | C,2 C2 [G,C]2 [E,C]2 | C2 B,2 [D,A,]2 [C,C]2 | C4 x4 | CB, [D,A,]4 [A,,A,]2 | %67
 F,2 G,2 F,2 C2 | x8 | C4"^cresc." B,2 A,2 | A,2 B,2"^rall." B,4 | C2 D2 G,2 CB, | A,8 |] C8 | %74
 A,4 B,2 C2 | B,8- | B,8 | x8 | x8 | x4 A,2 B,2 | C4 [=B,D]4 | x8 | A,4 =B,2 A,2 | ^G,4 A,2 =B,2 | %84
 x8 | A,4 [_A,C]4 | C4 =B,4 | =B,4 C2 x2 | x8 | x8 | x8 | A,4 B,4 | [G,B,]3 [A,C] [B,D]2 [DF]2 | %93
 [DF]2 [CE]2 [B,D]2 B,2 | A,4 A,2 B,2 | C4 B,4 | x8 | x4 E,4 | F,2 [F,A,]2 [F,A,]2 [D,G,]2 | %99
 E,4 [F,,F,]2 [E,,E,]2 | [D,,D,]6 [_D,,_D,]2 | [C,,C,]2 [B,,B,]2 [A,,A,]2 [G,,G,]2 | %102
 [F,,F,]4 [E,,E,]4 | [D,,D,]4 [G,,G,]4 | C,2 C2 [G,C]2 [E,C]2 | C2 B,2 [D,A,]2 [C,C]2 | C4 x4 | %107
 CB, [D,A,]4 [A,,A,]2 | F,2 G,2 F,2 C2 | x8 | C4"^cresc." B,2 A,2 | A,2 B,2"^rall." B,4 | %112
 C2 D2 G,2 CB, | A,8 |] %114
V:8
 F,,2 F,2 F,2 F,2 | C,4 C,4 | D,4 C,4 | B,,4 A,,4 | G,,3 A,, B,,2 =B,,2 | C,6 C,2 | B,,4 A,,4 | %7
 G,,2 C,2 F,2 F,2 | F,4 F,4 | [B,,F,]4 G,,4 | A,,4 D,C, B,,2 | A,,4 A,,2 G,2 | ^F,4 G,2 A,B, | %13
 C2 C,2 F, z F,2 | _E,4 E,2 E,2 | D,6 D,2 | G,,3 D, G,2 =F,2 | B,,6 B,,2 | x8 | x8 | G,4 C,4 | x8 | %22
 x2 C,2 B,,2 B,,F, | C,2 D,4 A,,2 | B,,4 A,,4 | G,,2 C,2 F,2 F,,2 | E,,2 z2 E,,2 z2 | x8 | %28
 G,,2 z2 G,,2 z2 | x8 | x8 | C,4 C,4 | D,2 C,2 B,,2 A,,2 | G,,4 C,4 | D,4 C,4 | B,,4 A,,4 | x8 | %37
 C,4 C,4 | D,4 x4 | x4 G2 E2 | x8 | x8 | G,4 G,,4 | G,,8- | G,,4 F,,4 | G,,8 | C,4 D,2 C,2 | %47
 F,2 C,2 B,,2 F,2 | C,2 D,4 A,,2 | B,,4 A,,4 | G,,2 C,2 [F,,F,]4 | F,8 | F,4 B,,4 | %53
 G,,4 A,,2 A,,2 | B,,4 =B,,4 | C,8 | F,,4 E,,4 | D,,2 C,2 B,,4 | A,,2 G,,2 x4 | x8 | x8 | x8 | x8 | %63
 x8 | C,4 x4 | F,2 C,2 B,,2 F,2 | C,2 x2 x4 | B,,4 A,,4 | G,,2 C,2 F,4 | F,8 | B,,4 G,,4 | %71
 A,,2 B,,2 C,4 | F,8 |] [F,,F,]8- | [F,,F,]8 | [F,,F,]8 | [F,,F,]8 | [F,,F,A,]4 [A,,F,]4 | %78
 [B,,F,]4 [C,B,]4 | [F,A,]4 F,4- | F,8 | [E,C]4 [F,A,]4 | D,8- | D,8 | [C,A,]6 [=B,,^G,]2 | %85
 A,,4 _A,,4 | [G,,G,]8 | [C,G,]6 [C,G,]2 | [_B,,G,]8 | [A,,F,]8 | [F,,F,A,]8 | B,,8 | G,8 | %93
 C,4 D,2 E,2 | F,4 ^F,2 G,2 | C,8 | [F,,F,A,]8- | [F,,F,A,]4 E,,4 | D,,2 C,2 B,,4 | A,,2 G,,2 x4 | %100
 x8 | x8 | x8 | x8 | x8 | C,4 x4 | F,2 C,2 B,,2 F,2 | C,2 x2 x4 | B,,4 A,,4 | G,,2 C,2 F,4 | F,8 | %111
 B,,4 G,,4 | A,,2 B,,2 C,4 | !fermata!F,8 |] %114

